app/client/src/assets/icons/blueprintjs/16px/widget.svg

<svg xmlns="http://www.w3.org/2000/svg" xml:space="preserve" viewBox="0 0 16 16"><path fill-rule="evenodd" d="M13 11h2V5h-2v6zM3 5H1v6h2V5zm11-1c1.1 0 2-.9 2-2s-.9-2-2-2-2 .9-2 2 .9 2 2 2zM2 12c-1.1 0-2 .9-2 2s.9 2 2 2 2-.9 2-2-.9-2-2-2zm12 0c-1.1 0-2 .9-2 2s.9 2 2 2 2-.9 2-2-.9-2-2-2zM5 3h6V1H5v2zM2 0C.9 0 0 .9 0 2s.9 2 2 2 2-.9 2-2-.9-2-2-2zm3 15h6v-2H5v2z" clip-rule="evenodd"/></svg>

<?xml version="1.0" encoding="utf-8"?>
<!-- Generator: Adobe Illustrator 17.1.0, SVG Export Plug-In . SVG Version: 6.00 Build 0)  -->
<!DOCTYPE svg PUBLIC "-//W3C//DTD SVG 1.1//EN" "http://www.w3.org/Graphics/SVG/1.1/DTD/svg11.dtd">
<svg version="1.1" id="Layer_1" xmlns="http://www.w3.org/2000/svg" xmlns:xlink="http://www.w3.org/1999/xlink" x="0px" y="0px"
	 viewBox="0 0 16 16" enable-background="new 0 0 16 16" xml:space="preserve">
<g id="widget_2_">
	<g>
		<path fill-rule="evenodd" clip-rule="evenodd" d="M13,11h2V5h-2V11z M3,5H1v6h2V5z M14,4c1.1,0,2-0.9,2-2c0-1.1-0.9-2-2-2
			s-2,0.9-2,2C12,3.1,12.9,4,14,4z M2,12c-1.1,0-2,0.9-2,2c0,1.1,0.9,2,2,2s2-0.9,2-2C4,12.9,3.1,12,2,12z M14,12c-1.1,0-2,0.9-2,2
			c0,1.1,0.9,2,2,2s2-0.9,2-2C16,12.9,15.1,12,14,12z M5,3h6V1H5V3z M2,0C0.9,0,0,0.9,0,2c0,1.1,0.9,2,2,2s2-0.9,2-2
			C4,0.9,3.1,0,2,0z M5,15h6v-2H5V15z"/>
	</g>
</g>
</svg>
